X:2
T:mdival1
C:Anonyme 
N:
Z:<anamnese@laposte.net> -- http://anamnese.fr.st
M:4/4
L:1/8
Q:1/4=120
K:Eb
dc B2c2d2 | cB cd e4 | de f2d2 ed | cd ed c4 |
dc B2cBcd | cd cd e4 | de fgf2 ed | cd ed c3z|
gf e2f2g2 | ab ag f3z| fe d2e2 fg | f2 ef g2 (3def |
g2 e2f2gz | %...
